!!!COM:	Martini, Johannes
!!!CDT:	~1440///-~1497//
!!!OTL:	Credidi propter quod locutus
!!!AGN:	Motet
!!!SCT:	Mar2017
!!!SCA:	Mar2017
!!!voices:	2
**kern	**kern
*staff2	*staff1
*Ivox	*Ivox
*I"Tenor	*I"Superius
*I'T	*I'S
*>[A,B,C,D,E,F,G,H,I,J]	*>[A,B,C,D,E,F,G,H,I,J]
*>A	*>A
*clefGv2	*clefG2
*k[]	*k[]
*M2/1	*M2/1
*met(C)	*met(C)
=1-	=1-
!!LO:TX:Z=8:t=Choir 1
!!section: Ego autem
!!!OMD: Ego autem
1c	1cc
2e\	2cc\
2e\	2cc\
=2	=2
1e	1cc
2e\	2cc\
2e\	2cc\
=3	=3
2e\	2cc\
2e\	2cc\
1e	1cc
=4	=4
2.c\	2.a/
4d\	4b\
2e\	2cc\
2d\	[2dd\
=5	=5
2f\	2dd\]
2e\	1cc
1d	.
.	2b\
=6	=6
0cl	0ccl
=7||	=7||
*>B	*>B
!!LO:TX:Z=8:t=Choir 2
2c\	2cc\
2c\	2cc\
1e	1cc
=8	=8
1e	1cc
2e\	2cc\
2c\	2cc\
=9	=9
2d\	2b\
2e\	2cc\
1f	1dd
=10	=10
1e	1cc
1r	1r
=11	=11
2c\	2cc\
2c\	2cc\
2c\	2a/
2e\	2cc\
=12	=12
1f	1dd
1cl	1ccl
=13||	=13||
*>C	*>C
!!section: Ego dixi
!!!OMD: Ego dixi
!!LO:TX:Z=8:t=Choir 1
2c\	2cc\
2c\	2cc\
2e\	2cc\
2e\	2cc\
=14	=14
1e	1cc
2e\	2cc\
[2f\	[2dd\
=15	=15
4f\]	4dd\]
4e\	4cc\
4d\	4b\
4c\	4a/
1d	1b
=16	=16
1c	1cc
1r	1r
=17	=17
1e	1cc
2e\	2cc\
2e\	2cc\
=18	=18
1e	1cc
2e\	2cc\
2d\	2b\
=19	=19
1c	2a/
.	2a/
2.B\	2.g/
4c\	4a/
=20	=20
2d\	2b\
2c\	1cc
1d	.
.	2b\
=21	=21
0cl	0ccl
=22||	=22||
*>D	*>D
!!section: Calicem
!!!OMD: Calicem
!!LO:TX:Z=8:t=Choir 2
2e\	2cc\
2e\	2cc\
1e	1cc
=23	=23
2e\	2cc\
2e\	2cc\
2e\	2cc\
2d\	2b\
=24	=24
2e\	2cc\
1f	1dd
2e\	2cc\
=25	=25
1e	1cc
1r	1r
=26	=26
1c	1cc
2e\	2cc\
2e\	2cc\
=27	=27
2e\	2cc\
2e\	2cc\
1e	1cc
=28	=28
2c\	2a/
2c\	2cc\
1f	1dd
=29	=29
0cl	0ccl
=30||	=30||
*>E	*>E
!!section: Vota mea Domine reddam coram
!!!OMD: Vota mea Domine reddam coram
!!LO:TX:Z=8:t=Choir 1
1c	1cc
2e\	2cc\
2e\	2cc\
=31	=31
1e	1cc
1e	1cc
=32	=32
2d\	2b\
2c\	2a/
1d	1b
=33	=33
1c	1a
1c	2r
.	2cc\
=34	=34
2e\	2cc\
2e\	2cc\
1e	1cc
=35	=35
1d	1b
2e\	2cc\
[2f\	[2dd\
=36	=36
4f\]	4dd\]
4e\	4cc\
4d\	4b\
4c\	4a/
1d	1b
=37	=37
1c	1cc
1r	1r
=38	=38
1e	1cc
2e\	2cc\
2e\	2cc\
=39	=39
1e	1cc
2e\	2cc\
2e\	2cc\
=40	=40
2e\	2cc\
2e\	2cc\
2e\	2cc\
2e\	2cc\
=41	=41
1e	1cc
2e\	2cc\
2e\	2cc\
=42	=42
2c\	2a/
2e\	2cc\
1f	1dd
=43	=43
0cl	0ccl
=44||	=44||
*>F	*>F
!!LO:TX:Z=8:t=Choir 2
!!section: O Domine
!!!OMD: O Domine
1c	1cc
2e\	2cc\
2e\	2cc\
=45	=45
1e	1cc
2e\	2cc\
2e\	2cc\
=46	=46
2e\	2cc\
2c\	2cc\
2d\	2b\
2e\	2cc\
=47	=47
1f	1dd
1c	1cc
=48	=48
1r	1r
2e\	2cc\
2e\	2cc\
=49	=49
2e\	2cc\
2e\	2cc\
1e	1cc
=50	=50
1e	1cc
2r	2r
2e\	2cc\
=51	=51
2e\	2cc\
2e\	2cc\
1e	1cc
=52	=52
1c	1cc
2c\	2a/
2c\	2cc\
=53	=53
1f	1dd
1cl	1ccl
=54||	=54||
*>G	*>G
!!section: Dirupisti
!!!OMD: Dirupisti
!!LO:TX:Z=8:t=Choir 1
1c	1cc
2e\	2cc\
2e\	2cc\
=55	=55
1e	1cc
1e	1cc
=56	=56
2e\	2cc\
2c\	2cc\
1d	1b
=57	=57
1c	1a
1r	1r
=58	=58
2e\	2cc\
2e\	2cc\
2e\	2cc\
2e\	2cc\
=59	=59
2e\	2cc\
2e\	2cc\
1e	1cc
=60	=60
2d\	2b\
2c\	2a/
2B\	2g/
2c\	[2cc\
=61	=61
1d	2cc\]
.	2b\
1c	1cc
=62	=62
1r	1r
1e	1cc
=63	=63
2e\	2cc\
2e\	2cc\
1d	2b\
.	2b\
=64	=64
2c\	2a/
2d\	1dd
2f\	.
2e\	[2cc\
=65	=65
1d	2cc\]
.	2b\
1cl	1ccl
=66||	=66||
*>H	*>H
!!section: Vota mea Domino reddam in
!!!OMD: Vota mea Domino reddam in
!!LO:TX:Z=8:t=Choir 2
1c	1cc
2e\	2cc\
2e\	2cc\
=67	=67
1e	1cc
2e\	2cc\
2e\	2cc\
=68	=68
2e\	2cc\
2e\	2cc\
1c	1a
=69	=69
1B	1g
2c\	2a/
2d\	2b\
=70	=70
1e	1cc
2e\	2cc\
2e\	2cc\
=71	=71
1e	1cc
2e\	2cc\
2e\	2cc\
=72	=72
1f	1dd
1c	1cc
=73	=73
1r	1r
1e	1cc
=74	=74
2e\	2cc\
2e\	2cc\
1e	1cc
=75	=75
2e\	2cc\
2e\	2cc\
2e\	2cc\
2e\	2cc\
=76	=76
1e	1cc
1c	1cc
=77	=77
2e\	2cc\
2e\	2cc\
2e\	2cc\
2c\	2cc\
=78	=78
2c\	2a/
2e\	2cc\
2f\	2dd\
2e\	2cc\
=79	=79
0cl	0ccl
=80||	=80||
*>I	*>I
!!section: Gloria Patri
!!!OMD: Gloria Patri
!!LO:TX:Z=8:t=Choir 1
1c	1cc
2e\	2cc\
2e\	2cc\
=81	=81
1e	1cc
1d	1b
=82	=82
2e\	2cc\
2.f\	2.dd\
4e\	4cc\
4d\	4b\
4c\	4a/
=83	=83
1d	1b
1c	1cc
=84	=84
1r	1r
1e	1cc
=85	=85
2e\	2cc\
2d\	2b\
1c	1a
=86	=86
2.B\	2.g/
4c\	4a/
2d\	2b\
[2e\	[2cc\
=87	=87
2e\]	2cc\]
4d\	4b\
4c\	4a/
1d	1b
=88	=88
0cl	0ccl
=89||	=89||
*>J	*>J
!!section: Sicut erat
!!!OMD: Sicut erat
!!LO:TX:Z=8:t=Choir 2
2c\	2cc\
2c\	2cc\
2e\	2cc\
2e\	2cc\
=90	=90
2e\	2cc\
2e\	2cc\
2e\	2cc\
2e\	2cc\
=91	=91
1e	1cc
1d	1b
=92	=92
2e\	2cc\
2d\	1dd
2f\	.
2e\	[2cc\
=93	=93
1d	2cc\]
.	2b\
1c	1cc
=94	=94
1r	1r
2e\	2cc\
2e\	2cc\
=95	=95
2e\	2cc\
2e\	2cc\
1e	1cc
=96	=96
1d	1b
2c\	2a/
2d\	2b\
=97	=97
2e\	2cc\
1f	1dd
2e\	[2cc\
=98	=98
1d	2cc\]
.	2b\
1cl	1ccl
==	==
*-	*-
!!!RDF**kern: l=long note in original notation
!!!ENC:	Chris Gage 02-09-2014
!!!END:	2014/10/06/
!!!EED:	Jesse Rodin
!!!EEV:	2014/10/16/
!!!ONB:	Translated from MusicXML and edited on 2014/10/16/ by Craig Sapp
!!muse2ps: C^@{COM}^i2I150v85,150c180
